.local/share/icons/MoreWaita/scalable/mimetypes/application-x-model.svg

<?xml version="1.0" encoding="UTF-8"?>
<svg height="128px" viewBox="0 0 128 128" width="128px" xmlns="http://www.w3.org/2000/svg">
    <path d="m 16 27.929688 h 96 c 4.433594 0 8 3.570312 8 8 v 50.070312 l -30 30 h -74 c -4.433594 0 -8 -3.566406 -8 -8 v -72.070312 c 0 -4.429688 3.566406 -8 8 -8 z m 0 0" fill="#f6f5f4"/>
    <path d="m 32.668167 -309.139771 h 138.3125 c 23.65625 0 42.84375 19.171875 42.84375 42.84375 v 138.3125 c 0 23.65625 -19.1875 42.84375 -42.84375 42.84375 h -138.3125 c -23.65625 0 -42.84375 -19.1875 -42.84375 -42.84375 v -138.3125 c 0 -23.671875 19.1875 -42.84375 42.84375 -42.84375 z m 0 0" fill="none" stroke="#3584e4" stroke-linecap="round" stroke-width="16" transform="matrix(0.25 0 0 -0.25 40.543896 20.679901)"/>
    <path d="m 120 86.125 h -22 c -4.433594 0 -8 3.570312 -8 8 v 21.875 z m 0 0" fill="#deddda"/>
    <g fill="none">
        <path d="m 83.00000025 46 v 51" stroke="#99c1f1" stroke-dasharray="2 2" stroke-width="2"/>
        <path d="m 49.00000025 46 v 51" stroke="#99c1f1" stroke-dasharray="2 2" stroke-width="2"/>
        <path d="m 31.636917 -181.280396 h 140.375 c 23.09375 0 41.8125 18.71875 41.8125 41.8125 v 12.5 c 0 23.109375 -18.71875 41.828125 -41.8125 41.828125 h -140.375 c -23.09375 0 -41.8125 -18.71875 -41.8125 -41.828125 v -12.5 c 0 -23.09375 18.71875 -41.8125 41.8125 -41.8125 z m 0 0" stroke="#3584e4" stroke-dasharray="16 16" stroke-dashoffset="17.6" stroke-width="16" transform="matrix(0.25 0 0 -0.25 40.543896 20.679901)"/>
        <path d="m 91.9414065 77.6875 c -1.50390625 -1.69140625 -3.6953125 -2.7578125 -6.14453125 -2.7578125 h -39.59375 c -2.51171875 0 -4.75 1.1171875 -6.25390625 2.88671875" stroke="#99c1f1" stroke-dasharray="2 2" stroke-dashoffset="2.2" stroke-width="2"/>
    </g>
</svg>

<?xml version="1.0" encoding="UTF-8" standalone="no"?>
<svg
   height="128px"
   viewBox="0 0 128 128"
   width="128px"
   version="1.1"
   id="svg7"
   xmlns="http://www.w3.org/2000/svg"
   xmlns:svg="http://www.w3.org/2000/svg">
  <defs
     id="defs7" />
  <path
     d="m 16,28 h 96 c 4.43359,0 8,3.567462 8,7.993613 V 86.023951 L 90,116 H 16 c -4.433594,0 -8,-3.56356 -8,-7.99361 V 35.993613 C 8,31.567462 11.566406,28 16,28 Z m 0,0"
     fill="#f6f5f4"
     id="path1"
     style="stroke-width:0.999601" />
  <path
     d="m 48.710938,97.979242 h 34.578125 c 5.914063,0 10.710938,-4.789141 10.710938,-10.702386 V 52.726337 c 0,-5.909341 -4.796875,-10.702386 -10.710938,-10.702386 H 48.710938 C 42.796875,42.023951 38,46.816996 38,52.726337 v 34.550519 c 0,5.913245 4.796875,10.702386 10.710938,10.702386 z m 0,0"
     fill="none"
     stroke="#3584e4"
     stroke-linecap="round"
     stroke-width="3.9984"
     id="path2" />
  <path
     d="M 120,86.148851 H 98 c -4.433594,0 -8,3.567462 -8,7.993613 V 116 Z m 0,0"
     fill="#deddda"
     id="path3"
     style="stroke-width:0.999601" />
  <g
     fill="none"
     id="g7"
     transform="matrix(1,0,0,0.99920164,0,0.09260995)">
    <path
       d="M 83,46 V 97"
       stroke="#99c1f1"
       stroke-dasharray="2, 2"
       stroke-width="2"
       id="path4" />
    <path
       d="M 49,46 V 97"
       stroke="#99c1f1"
       stroke-dasharray="2, 2"
       stroke-width="2"
       id="path5" />
    <path
       d="M 31.636917,-181.2804 H 172.01192 c 23.09375,0 41.8125,18.71875 41.8125,41.8125 v 12.5 c 0,23.10938 -18.71875,41.828129 -41.8125,41.828129 H 31.636917 c -23.09375,0 -41.8125,-18.718749 -41.8125,-41.828129 v -12.5 c 0,-23.09375 18.71875,-41.8125 41.8125,-41.8125 z m 0,0"
       stroke="#3584e4"
       stroke-dasharray="16, 16"
       stroke-dashoffset="17.6"
       stroke-width="16"
       transform="matrix(0.25,0,0,-0.25,40.543896,20.679901)"
       id="path6" />
    <path
       d="M 91.941406,77.6875 C 90.4375,75.996094 88.246094,74.929687 85.796875,74.929687 h -39.59375 c -2.511719,0 -4.75,1.117188 -6.253906,2.886719"
       stroke="#99c1f1"
       stroke-dasharray="2, 2"
       stroke-dashoffset="2.2"
       stroke-width="2"
       id="path7" />
  </g>
</svg>
